svg/300/outlined/speed_0_5x-fill.svg

<svg xmlns="http://www.w3.org/2000/svg" width="48" height="48" viewBox="0 -960 960 960"><path d="M140.001-287.77v-45.384h45.384v45.384h-45.384Zm399.384-2.231 111.692-198.307-103.615-181.691h51.537l80.385 141.461 79.385-141.461h50.768L707.306-489.077l112.693 199.076h-50.538l-90.462-157.462-89.231 157.462h-50.383Zm-289.384 2.231v-45.384H405q5.385 0 8.846-3.654 3.462-3.654 3.462-8.654v-101.153q0-5-3.462-8.654-3.461-3.655-8.846-3.655H250.001V-672.23h212.691v45.384H295.384v122.539H405q23.615 0 40.653 17.038 17.039 17.039 17.039 40.654v101.153q0 23.615-17.039 40.654Q428.615-287.77 405-287.77H250.001Z"/></svg>

<svg xmlns="http://www.w3.org/2000/svg" width="48" height="48" viewBox="0 -960 960 960"><path d="M140-287.77v-45.38h45.39v45.38H140ZM539.38-290l111.7-198.31L547.46-670H599l80.38 141.46L758.77-670h50.77L707.31-489.08 820-290h-50.54L679-447.46 589.77-290h-50.39ZM250-287.77v-45.38h155q5.38 0 8.85-3.66 3.46-3.65 3.46-8.65v-101.15q0-5.01-3.46-8.66-3.47-3.65-8.85-3.65H250v-213.31h212.69v45.38H295.38v122.54H405q23.61 0 40.65 17.04t17.04 40.66v101.15q0 23.61-17.04 40.65T405-287.77H250Z"/></svg>
